Costumes/P-story-1.svg

<?xml version="1.0" encoding="utf-8"?>
<!-- Generator: Adobe Illustrator 18.0.0, SVG Export Plug-In . SVG Version: 6.00 Build 0)  -->
<!DOCTYPE svg PUBLIC "-//W3C//DTD SVG 1.1//EN" "http://www.w3.org/Graphics/SVG/1.1/DTD/svg11.dtd">
<svg version="1.1" id="Layer_2" xmlns="http://www.w3.org/2000/svg" xmlns:xlink="http://www.w3.org/1999/xlink" x="0px" y="0px"
	 viewBox="0 0 40.7 51.8" enable-background="new 0 0 40.7 51.8" xml:space="preserve">
<g>
	<path fill="#53AD4E" d="M40.7,12.3C40.5,10,39.6,7.9,38.4,6c-1.2-1.8-2.9-3.4-4.9-4.4c-2.4-1.2-4.9-1.7-7.6-1.6
		C23,0.2,20,0.2,17.1,0.1C13.2-0.1,9.4,0,5.5,0.3c-0.4,0-0.8,0.2-1.1,0.5C3.2,2,2.1,3.4,0.9,4.6C0,5.4-0.1,6.3,0.1,7.3
		c0,0.2,0.4,0.5,0.6,0.5c1.2,0.1,2.3,0,3.5,0.1C4.8,7.9,5.1,8.2,5,9c-0.1,1.1-0.1,2.3-0.1,3.5C5,15,5.1,17.5,5,20
		c0,3.6-0.2,7.2-0.2,10.7c-0.1,4.2,0.5,8.3-0.1,12.5c-0.1,0.8,0,1.7,0,2.6c-1.2,1-2.5,2-3.8,3c-0.4,0.3-0.4,2.3,0,2.7
		c0.1,0.1,0.3,0.2,0.4,0.2c1.5,0.1,2.9,0.2,4.4,0.2c2.6,0,5.3-0.1,7.9-0.2c1.8-0.1,3.8,0.2,4.7-2c0,0,0.1-0.1,0.1-0.1
		c0.8-0.9,1.7-1.8,1.6-3.1c0-0.6-0.1-0.9-0.8-1c-0.5-0.1-1-0.2-1.5-0.3c-0.8-0.2-1.1-0.6-1.1-1.4c-0.1-2.4-0.3-4.9-0.4-7.3
		c-0.1-1.9-0.3-3.7-0.4-5.6c0.9,0,1.7,0,2.6,0c2.1,0,4.3,0.1,6.4,0c1.5-0.1,3.1-0.4,4.6-0.8c1.1-0.3,2.3-0.7,3.2-1.4
		c1-0.7,1.8-1.8,2.7-2.8c0.9-1.1,1.7-2.2,2.4-3.3c0.9-1.5,1.8-3,2.5-4.6C40.9,16.1,40.8,14.2,40.7,12.3z M0.6,6.8
		c0.1-0.3,0-0.8,0.2-1c1.3-1.6,2.6-3.1,4.1-4.6c-0.1,0.5,0,1-0.2,1.4C3.5,4.1,2.2,5.5,0.9,6.9C0.8,6.9,0.7,6.8,0.6,6.8z M4.2,7.1
		c-0.4,0-0.8,0-1.2,0H1.8c0.6-0.8,1.3-1.5,1.9-2.2c0.4-0.6,0.8-1.2,1.3-1.7C5.2,3,5.5,2.7,5.8,2.7c0.8,0,1.6,0,2.3,0.3
		C8.6,3.2,9,3.9,9.1,4.4C9.2,5.9,9,7.4,9,8.8c0,1,0,2,0.1,3.1c0.2,3,0.6,6,0.6,9.1c0,3.4-0.4,6.8-0.6,10.2c0,0.4-0.1,0.8,0,1.2
		c0.1,3.3,0.2,6.6,0.3,9.9c0,0.3,0,0.6,0,1c0,1.8-0.4,2.2-2.2,2.2h-2c0.1-0.9,0.3-1.9,0.3-2.9c0.1-2,0.1-4,0.1-6
		c0-3.3-0.1-6.5,0-9.8c0.1-4,0.3-8,0.3-12c0-1.3-0.2-2.7-0.3-4c0-0.6,0.1-1.1,0.2-1.7C5.9,8,5.3,7.2,4.2,7.1z M1.9,48.9
		c1.2-0.8,2.2-1.8,3.5-2.8c0.1,1,0.1,1.6-0.5,2.3c-1,1.1-2.1,1.8-3.4,2.4C1.1,50.1,1.1,49.5,1.9,48.9z M18.5,47.9
		c0,0.1,0,0.2,0.1,0.3c-0.6,0.8-1.2,1.6-1.8,2.4c-0.1,0.1-0.4,0.2-0.6,0.2c-1.7,0.1-3.4,0.2-5,0.2c-2.7,0-5.4,0-8.1,0
		c1.1-1,2.1-2,3.1-3c0.1-0.1,0.4-0.2,0.5-0.2C10.7,47.9,14.6,47.9,18.5,47.9z M16.7,27.3c0.8-0.5,1.5-1.1,2.3-1.6
		c0.1,0,0.2,0.1,0.2,0.1c-0.1,0.3,0,0.7-0.2,0.9c-1,0.9-2,1.8-3.1,2.8C15.6,28.5,15.8,27.8,16.7,27.3z M15.9,27
		c0.2-6.9,0.4-13.6,0.5-20.4c3.2,0.3,6.7,0,9.9,1.2c1.7,0.7,3.2,1.7,3.8,3.5c0.4,1.3,0.6,2.6,0.6,4c0,1.6-0.1,3.2-0.3,4.8
		c-0.1,1-0.7,1.9-1.5,2.6c-2.1,2.1-4.8,2.1-7.4,2.4C19.6,25.3,17.6,25.3,15.9,27z M34.3,25.7c-1.6,2-3.5,3.3-6.1,3.8
		c-3.5,0.7-7,0.6-10.4,0.6c-0.4,0-0.9-0.1-1.3-0.2c0.8-0.7,1.5-1.5,2.4-2c0.4-0.3,1.1-0.4,1.7-0.4c3.4,0.3,6.8,0.3,10.2-0.7
		c1.4-0.4,2.8-0.5,3.9-1.6C34.5,25.4,34.4,25.6,34.3,25.7z M33.4,19.6c-0.8,1.5-2.1,2.6-3.6,3.4c2-3.7,1.7-7.6,1.1-11.4
		c-0.2-1.5-1.3-2.8-2.7-3.6c-2.2-1.3-4.5-1.7-7-1.8c-1.6-0.1-3.3,0-5,0c0.1-0.6,0.1-1.2,0.3-1.6c0.1-0.3,0.5-0.7,0.9-0.8
		c3.1-0.8,6.3-1.1,9.4-0.3c3.4,0.9,6.3,3,7.4,6.7C35.2,13.3,35.1,16.6,33.4,19.6z"/>
	<path fill="#FFFFFF" d="M4.9,1.2c-0.1,0.5,0,1-0.2,1.4C3.5,4.1,2.2,5.5,0.9,6.9C0.8,6.9,0.7,6.8,0.6,6.8c0.1-0.3,0-0.8,0.2-1
		C2.1,4.2,3.5,2.7,4.9,1.2z"/>
	<path fill="#FFFFFF" d="M33.4,19.6c-0.8,1.5-2.1,2.6-3.6,3.4c2-3.7,1.7-7.6,1.1-11.4c-0.2-1.5-1.3-2.8-2.7-3.6
		c-2.2-1.3-4.5-1.7-7-1.8c-1.6-0.1-3.3,0-5,0c0.1-0.6,0.1-1.2,0.3-1.6c0.1-0.3,0.5-0.7,0.9-0.8c3.1-0.8,6.3-1.1,9.4-0.3
		c3.4,0.9,6.3,3,7.4,6.7C35.2,13.3,35.1,16.6,33.4,19.6z"/>
	<path fill="#FFFFFF" d="M34.5,25.2c-0.1,0.2-0.1,0.3-0.2,0.5c-1.6,2-3.5,3.3-6.1,3.8c-3.5,0.7-7,0.6-10.4,0.6
		c-0.4,0-0.9-0.1-1.3-0.2c0.8-0.7,1.5-1.5,2.4-2c0.4-0.3,1.1-0.4,1.7-0.4c3.4,0.3,6.8,0.3,10.2-0.7C32,26.5,33.4,26.3,34.5,25.2z"/>
	<path fill="#FFFFFF" d="M19.2,25.8c-0.1,0.3,0,0.7-0.2,0.9c-1,0.9-2,1.8-3.1,2.8c-0.3-1-0.1-1.7,0.7-2.2c0.8-0.5,1.5-1.1,2.3-1.6
		C19,25.7,19.1,25.8,19.2,25.8z"/>
	<path fill="#FFFFFF" d="M4.8,48.4c-1,1.1-2.1,1.8-3.4,2.4c-0.2-0.8-0.3-1.4,0.5-2c1.2-0.8,2.2-1.8,3.5-2.8
		C5.5,47.1,5.4,47.7,4.8,48.4z"/>
	<path fill="#FFFFFF" d="M18.6,48.2c-0.6,0.8-1.2,1.6-1.8,2.4c-0.1,0.1-0.4,0.2-0.6,0.2c-1.7,0.1-3.4,0.2-5,0.2c-2.7,0-5.4,0-8.1,0
		c1.1-1,2.1-2,3.1-3c0.1-0.1,0.4-0.2,0.5-0.2c3.9,0,7.9,0,11.8,0C18.6,48,18.6,48.1,18.6,48.2z"/>
	<path fill="#FFFFFF" d="M9.3,42.2c0,0.3,0,0.6,0,1c0,1.8-0.4,2.2-2.2,2.2h-2c0.1-0.9,0.3-1.9,0.3-2.9c0.1-2,0.1-4,0.1-6
		c0-3.3-0.1-6.5,0-9.8c0.1-4,0.3-8,0.3-12c0-1.3-0.2-2.7-0.3-4c0-0.6,0.1-1.1,0.2-1.7C5.9,8,5.3,7.2,4.2,7.1c-0.4,0-0.8,0-1.2,0H1.8
		c0.6-0.8,1.3-1.5,1.9-2.2c0.4-0.6,0.8-1.2,1.3-1.7C5.2,3,5.5,2.7,5.8,2.7c0.8,0,1.6,0,2.3,0.3C8.6,3.2,9,3.9,9.1,4.4
		C9.2,5.9,9,7.4,9,8.8c0,1,0,2,0.1,3.1c0.2,3,0.6,6,0.6,9.1c0,3.4-0.4,6.8-0.6,10.2c0,0.4-0.1,0.8,0,1.2C9.1,35.6,9.2,38.9,9.3,42.2
		z"/>
</g>
</svg>

<?xml version="1.0" encoding="UTF-8" standalone="no"?>
<!-- Generator: Adobe Illustrator 18.0.0, SVG Export Plug-In . SVG Version: 6.00 Build 0)  -->

<svg
   version="1.1"
   id="Layer_2"
   x="0px"
   y="0px"
   viewBox="0 0 40.757262 51.912442"
   enable-background="new 0 0 40.7 51.8"
   xml:space="preserve"
   sodipodi:docname="P-story-1.svg"
   width="40.757263"
   height="51.912441"
   xmlns:inkscape="http://www.inkscape.org/namespaces/inkscape"
   xmlns:sodipodi="http://sodipodi.sourceforge.net/DTD/sodipodi-0.dtd"
   xmlns="http://www.w3.org/2000/svg"
   xmlns:svg="http://www.w3.org/2000/svg"><defs
   id="defs23" /><sodipodi:namedview
   id="namedview21"
   pagecolor="#ffffff"
   bordercolor="#000000"
   borderopacity="0.25"
   inkscape:showpageshadow="2"
   inkscape:pageopacity="0.0"
   inkscape:pagecheckerboard="0"
   inkscape:deskcolor="#d1d1d1" />
<g
   id="g18"
   transform="translate(-0.01344736,0.01244272)">
	<path
   fill="#53ad4e"
   d="M 40.7,12.3 C 40.5,10 39.6,7.9 38.4,6 37.2,4.2 35.5,2.6 33.5,1.6 31.1,0.4 28.6,-0.1 25.9,0 23,0.2 20,0.2 17.1,0.1 13.2,-0.1 9.4,0 5.5,0.3 5.1,0.3 4.7,0.5 4.4,0.8 3.2,2 2.1,3.4 0.9,4.6 0,5.4 -0.1,6.3 0.1,7.3 0.1,7.5 0.5,7.8 0.7,7.8 1.9,7.9 3,7.8 4.2,7.9 4.8,7.9 5.1,8.2 5,9 4.9,10.1 4.9,11.3 4.9,12.5 5,15 5.1,17.5 5,20 5,23.6 4.8,27.2 4.8,30.7 4.7,34.9 5.3,39 4.7,43.2 c -0.1,0.8 0,1.7 0,2.6 -1.2,1 -2.5,2 -3.8,3 -0.4,0.3 -0.4,2.3 0,2.7 0.1,0.1 0.3,0.2 0.4,0.2 1.5,0.1 2.9,0.2 4.4,0.2 2.6,0 5.3,-0.1 7.9,-0.2 1.8,-0.1 3.8,0.2 4.7,-2 0,0 0.1,-0.1 0.1,-0.1 0.8,-0.9 1.7,-1.8 1.6,-3.1 0,-0.6 -0.1,-0.9 -0.8,-1 -0.5,-0.1 -1,-0.2 -1.5,-0.3 -0.8,-0.2 -1.1,-0.6 -1.1,-1.4 -0.1,-2.4 -0.3,-4.9 -0.4,-7.3 -0.1,-1.9 -0.3,-3.7 -0.4,-5.6 0.9,0 1.7,0 2.6,0 2.1,0 4.3,0.1 6.4,0 1.5,-0.1 3.1,-0.4 4.6,-0.8 1.1,-0.3 2.3,-0.7 3.2,-1.4 1,-0.7 1.8,-1.8 2.7,-2.8 0.9,-1.1 1.7,-2.2 2.4,-3.3 0.9,-1.5 1.8,-3 2.5,-4.6 0.7,-1.9 0.6,-3.8 0.5,-5.7 z M 0.6,6.8 C 0.7,6.5 0.6,6 0.8,5.8 2.1,4.2 3.4,2.7 4.9,1.2 4.8,1.7 4.9,2.2 4.7,2.6 3.5,4.1 2.2,5.5 0.9,6.9 0.8,6.9 0.7,6.8 0.6,6.8 Z m 3.6,0.3 c -0.4,0 -0.8,0 -1.2,0 H 1.8 C 2.4,6.3 3.1,5.6 3.7,4.9 4.1,4.3 4.5,3.7 5,3.2 5.2,3 5.5,2.7 5.8,2.7 6.6,2.7 7.4,2.7 8.1,3 8.6,3.2 9,3.9 9.1,4.4 9.2,5.9 9,7.4 9,8.8 c 0,1 0,2 0.1,3.1 0.2,3 0.6,6 0.6,9.1 0,3.4 -0.4,6.8 -0.6,10.2 0,0.4 -0.1,0.8 0,1.2 0.1,3.3 0.2,6.6 0.3,9.9 0,0.3 0,0.6 0,1 0,1.8 -0.4,2.2 -2.2,2.2 h -2 c 0.1,-0.9 0.3,-1.9 0.3,-2.9 0.1,-2 0.1,-4 0.1,-6 0,-3.3 -0.1,-6.5 0,-9.8 0.1,-4 0.3,-8 0.3,-12 0,-1.3 -0.2,-2.7 -0.3,-4 C 5.6,10.2 5.7,9.7 5.8,9.1 5.9,8 5.3,7.2 4.2,7.1 Z M 1.9,48.9 c 1.2,-0.8 2.2,-1.8 3.5,-2.8 0.1,1 0.1,1.6 -0.5,2.3 -1,1.1 -2.1,1.8 -3.4,2.4 -0.4,-0.7 -0.4,-1.3 0.4,-1.9 z m 16.6,-1 c 0,0.1 0,0.2 0.1,0.3 -0.6,0.8 -1.2,1.6 -1.8,2.4 -0.1,0.1 -0.4,0.2 -0.6,0.2 -1.7,0.1 -3.4,0.2 -5,0.2 -2.7,0 -5.4,0 -8.1,0 1.1,-1 2.1,-2 3.1,-3 0.1,-0.1 0.4,-0.2 0.5,-0.2 4,0.1 7.9,0.1 11.8,0.1 z M 16.7,27.3 c 0.8,-0.5 1.5,-1.1 2.3,-1.6 0.1,0 0.2,0.1 0.2,0.1 -0.1,0.3 0,0.7 -0.2,0.9 -1,0.9 -2,1.8 -3.1,2.8 -0.3,-1 -0.1,-1.7 0.8,-2.2 z M 15.9,27 c 0.2,-6.9 0.4,-13.6 0.5,-20.4 3.2,0.3 6.7,0 9.9,1.2 1.7,0.7 3.2,1.7 3.8,3.5 0.4,1.3 0.6,2.6 0.6,4 0,1.6 -0.1,3.2 -0.3,4.8 -0.1,1 -0.7,1.9 -1.5,2.6 -2.1,2.1 -4.8,2.1 -7.4,2.4 -1.9,0.2 -3.9,0.2 -5.6,1.9 z m 18.4,-1.3 c -1.6,2 -3.5,3.3 -6.1,3.8 -3.5,0.7 -7,0.6 -10.4,0.6 -0.4,0 -0.9,-0.1 -1.3,-0.2 0.8,-0.7 1.5,-1.5 2.4,-2 0.4,-0.3 1.1,-0.4 1.7,-0.4 3.4,0.3 6.8,0.3 10.2,-0.7 1.4,-0.4 2.8,-0.5 3.9,-1.6 -0.2,0.2 -0.3,0.4 -0.4,0.5 z m -0.9,-6.1 c -0.8,1.5 -2.1,2.6 -3.6,3.4 2,-3.7 1.7,-7.6 1.1,-11.4 C 30.7,10.1 29.6,8.8 28.2,8 26,6.7 23.7,6.3 21.2,6.2 c -1.6,-0.1 -3.3,0 -5,0 C 16.3,5.6 16.3,5 16.5,4.6 16.6,4.3 17,3.9 17.4,3.8 20.5,3 23.7,2.7 26.8,3.5 c 3.4,0.9 6.3,3 7.4,6.7 1,3.1 0.9,6.4 -0.8,9.4 z"
   id="path2" />
	<path
   fill="#ffffff"
   d="M 4.9,1.2 C 4.8,1.7 4.9,2.2 4.7,2.6 3.5,4.1 2.2,5.5 0.9,6.9 0.8,6.9 0.7,6.8 0.6,6.8 0.7,6.5 0.6,6 0.8,5.8 2.1,4.2 3.5,2.7 4.9,1.2 Z"
   id="path4" />
	<path
   fill="#ffffff"
   d="m 33.4,19.6 c -0.8,1.5 -2.1,2.6 -3.6,3.4 2,-3.7 1.7,-7.6 1.1,-11.4 C 30.7,10.1 29.6,8.8 28.2,8 26,6.7 23.7,6.3 21.2,6.2 c -1.6,-0.1 -3.3,0 -5,0 C 16.3,5.6 16.3,5 16.5,4.6 16.6,4.3 17,3.9 17.4,3.8 20.5,3 23.7,2.7 26.8,3.5 c 3.4,0.9 6.3,3 7.4,6.7 1,3.1 0.9,6.4 -0.8,9.4 z"
   id="path6" />
	<path
   fill="#ffffff"
   d="m 34.5,25.2 c -0.1,0.2 -0.1,0.3 -0.2,0.5 -1.6,2 -3.5,3.3 -6.1,3.8 -3.5,0.7 -7,0.6 -10.4,0.6 -0.4,0 -0.9,-0.1 -1.3,-0.2 0.8,-0.7 1.5,-1.5 2.4,-2 0.4,-0.3 1.1,-0.4 1.7,-0.4 3.4,0.3 6.8,0.3 10.2,-0.7 1.2,-0.3 2.6,-0.5 3.7,-1.6 z"
   id="path8" />
	<path
   fill="#ffffff"
   d="m 19.2,25.8 c -0.1,0.3 0,0.7 -0.2,0.9 -1,0.9 -2,1.8 -3.1,2.8 -0.3,-1 -0.1,-1.7 0.7,-2.2 0.8,-0.5 1.5,-1.1 2.3,-1.6 0.1,0 0.2,0.1 0.3,0.1 z"
   id="path10" />
	<path
   fill="#ffffff"
   d="M 4.8,48.4 C 3.8,49.5 2.7,50.2 1.4,50.8 1.2,50 1.1,49.4 1.9,48.8 3.1,48 4.1,47 5.4,46 c 0.1,1.1 0,1.7 -0.6,2.4 z"
   id="path12" />
	<path
   fill="#ffffff"
   d="m 18.6,48.2 c -0.6,0.8 -1.2,1.6 -1.8,2.4 -0.1,0.1 -0.4,0.2 -0.6,0.2 -1.7,0.1 -3.4,0.2 -5,0.2 -2.7,0 -5.4,0 -8.1,0 1.1,-1 2.1,-2 3.1,-3 0.1,-0.1 0.4,-0.2 0.5,-0.2 3.9,0 7.9,0 11.8,0 0.1,0.2 0.1,0.3 0.1,0.4 z"
   id="path14" />
	<path
   fill="#ffffff"
   d="m 9.3,42.2 c 0,0.3 0,0.6 0,1 0,1.8 -0.4,2.2 -2.2,2.2 h -2 c 0.1,-0.9 0.3,-1.9 0.3,-2.9 0.1,-2 0.1,-4 0.1,-6 0,-3.3 -0.1,-6.5 0,-9.8 0.1,-4 0.3,-8 0.3,-12 C 5.8,13.4 5.6,12 5.5,10.7 5.5,10.1 5.6,9.6 5.7,9 5.9,8 5.3,7.2 4.2,7.1 3.8,7.1 3.4,7.1 3,7.1 H 1.8 C 2.4,6.3 3.1,5.6 3.7,4.9 4.1,4.3 4.5,3.7 5,3.2 5.2,3 5.5,2.7 5.8,2.7 6.6,2.7 7.4,2.7 8.1,3 8.6,3.2 9,3.9 9.1,4.4 9.2,5.9 9,7.4 9,8.8 c 0,1 0,2 0.1,3.1 0.2,3 0.6,6 0.6,9.1 0,3.4 -0.4,6.8 -0.6,10.2 0,0.4 -0.1,0.8 0,1.2 0,3.2 0.1,6.5 0.2,9.8 z"
   id="path16" />
</g>
</svg>
